X:41
T: The Rakes of Mallow
R: polka
M: 4/4
L: 1/4
K: Gmaj
GB GB | GB c/B/A/G/ | FA FA | FA d/c/B/A/ |
GB GB | GB d2 | c/B/A/G/ F/G/A/c/ | BG G2 :|
|: gf ed | Bc d2 | gf ed | Bc A2 |
gf ed | Bc d2 | c/B/A/G/ F/G/A/c/ | BG G2 :|

